X:7424
T:Hurra For The Bonnets of Blue. BF12.28
M:6/8
L:1/8
C:Browne "C" hand
S:MS12,c1835,Browne Coll.,Lakes
R:Jig
O:England
A:Lakes
N:Key signature is given as D flat on second line down, A flat in 3rd
N:space down. *.Lower part of bottom stave is missing, so note lengths
N:in
N:last  5 bars and last 4 notes are guesswork.
Z:vmp.Cherri Graebe.
K:B_ major
D|BcB (def)|FGF FGA|B2g fdB|(c3c2)F|!BcB (def)|FGF F2g|fed cBc|(B3B2):|!
|:B|(ABc) (cdc)|(F3F2)B|(ABc) cd=e)|f3f2e|!dcd BGA|B2cd2g|(gec) (BcA)|(G
3
G2)F|!
BcB"*" dfd|(B3B2)F|B2g gdB|(c3c2)e|!dcd Bcd|(efg)f2g|fed c2c|(B3B2)||


